flaticon/dialogue/chat-47.svg

<svg xmlns="http://www.w3.org/2000/svg" width="32" height="32" viewBox="0 0 24 24">
    <path d="M 21.601562 2.800781 L 21.199219 2.800781 L 21.199219 1.917969 C 21.199219 0.878906 20.320312 0 19.28125 0 L 4.71875 0 C 3.679688 0 2.800781 0.878906 2.800781 1.917969 L 2.800781 2.800781 L 2.398438 2.800781 C 1.097656 2.800781 0 3.898438 0 5.199219 L 0 17.601562 C 0 18.902344 1.097656 20 2.398438 20 L 8.222656 20 L 11.703125 23.867188 C 11.777344 23.953125 11.886719 24 12 24 C 12.113281 24 12.222656 23.953125 12.296875 23.867188 L 15.777344 20 L 21.601562 20 C 22.902344 20 24 18.902344 24 17.601562 L 24 5.199219 C 24 3.898438 22.902344 2.800781 21.601562 2.800781 Z M 3.601562 1.917969 C 3.601562 1.3125 4.113281 0.800781 4.71875 0.800781 L 19.28125 0.800781 C 19.886719 0.800781 20.398438 1.3125 20.398438 1.917969 L 20.398438 2.800781 L 3.601562 2.800781 Z M 23.199219 17.601562 C 23.199219 18.46875 22.46875 19.199219 21.601562 19.199219 L 16.585938 19.199219 L 17.507812 18.285156 C 17.667969 18.128906 17.667969 17.875 17.511719 17.71875 C 17.359375 17.5625 17.105469 17.558594 16.945312 17.714844 L 15.34375 19.304688 C 15.332031 19.3125 15.3125 19.320312 15.304688 19.332031 L 12 23.003906 L 8.695312 19.332031 C 8.695312 19.328125 8.691406 19.328125 8.6875 19.324219 C 8.683594 19.324219 8.683594 19.320312 8.679688 19.316406 L 7.0625 17.714844 C 6.90625 17.558594 6.652344 17.5625 6.5 17.71875 C 6.34375 17.875 6.34375 18.128906 6.503906 18.285156 L 7.425781 19.199219 L 2.398438 19.199219 C 1.53125 19.199219 0.800781 18.46875 0.800781 17.601562 L 0.800781 5.199219 C 0.800781 4.332031 1.53125 3.601562 2.398438 3.601562 L 21.601562 3.601562 C 22.46875 3.601562 23.199219 4.332031 23.199219 5.199219 Z M 23.199219 17.601562"/>
    <path d="M6.800781 9.992188C5.917969 9.992188 5.199219 10.710938 5.199219 11.59375 5.199219 12.476562 5.917969 13.195312 6.800781 13.195312 7.683594 13.195312 8.398438 12.476562 8.398438 11.59375 8.398438 10.710938 7.683594 9.992188 6.800781 9.992188zM6.800781 12.394531C6.359375 12.394531 6 12.035156 6 11.59375 6 11.152344 6.359375 10.792969 6.800781 10.792969 7.242188 10.792969 7.601562 11.152344 7.601562 11.59375 7.601562 12.035156 7.242188 12.394531 6.800781 12.394531zM12 9.992188C11.117188 9.992188 10.398438 10.710938 10.398438 11.59375 10.398438 12.476562 11.117188 13.195312 12 13.195312 12.882812 13.195312 13.601562 12.476562 13.601562 11.59375 13.601562 10.710938 12.882812 9.992188 12 9.992188zM12 12.394531C11.558594 12.394531 11.199219 12.035156 11.199219 11.59375 11.199219 11.152344 11.558594 10.792969 12 10.792969 12.441406 10.792969 12.800781 11.152344 12.800781 11.59375 12.800781 12.035156 12.441406 12.394531 12 12.394531zM17.199219 9.992188C16.316406 9.992188 15.601562 10.710938 15.601562 11.59375 15.601562 12.476562 16.316406 13.195312 17.199219 13.195312 18.082031 13.195312 18.800781 12.476562 18.800781 11.59375 18.800781 10.710938 18.082031 9.992188 17.199219 9.992188zM17.199219 12.394531C16.757812 12.394531 16.398438 12.035156 16.398438 11.59375 16.398438 11.152344 16.757812 10.792969 17.199219 10.792969 17.640625 10.792969 18 11.152344 18 11.59375 18 12.035156 17.640625 12.394531 17.199219 12.394531zM17.199219 12.394531"/>
</svg>

<svg xmlns="http://www.w3.org/2000/svg" width="32" height="32" viewBox="0 0 24 24">
    <path d="M21.602 2.8h-.403v-.882C21.2.878 20.32 0 19.281 0H4.72C3.679 0 2.8.879 2.8 1.918v.883h-.403C1.098 2.8 0 3.898 0 5.199v12.403C0 18.902 1.098 20 2.398 20h5.825l3.48 3.867A.391.391 0 0 0 12 24a.391.391 0 0 0 .297-.133L15.777 20h5.825c1.3 0 2.398-1.098 2.398-2.398V5.199c0-1.3-1.098-2.398-2.398-2.398zm-18-.882c0-.605.511-1.117 1.117-1.117H19.28c.606 0 1.117.511 1.117 1.117v.883H3.602zm19.597 15.684c0 .867-.73 1.597-1.597 1.597h-5.016l.922-.914a.4.4 0 0 0-.563-.57l-1.601 1.59c-.012.008-.031.015-.04.027L12 23.004l-3.305-3.672c0-.004-.004-.004-.008-.008-.003 0-.003-.004-.007-.008l-1.617-1.601a.396.396 0 0 0-.563.004.397.397 0 0 0 .004.566l.922.914H2.398c-.867 0-1.597-.73-1.597-1.597V5.199c0-.867.73-1.597 1.597-1.597h19.204c.867 0 1.597.73 1.597 1.597zm0 0"/>
    <path d="M6.8 9.992c-.882 0-1.6.719-1.6 1.602 0 .883.718 1.601 1.6 1.601a1.6 1.6 0 0 0 1.598-1.601 1.6 1.6 0 0 0-1.597-1.602zm0 2.403a.802.802 0 0 1 0-1.602.802.802 0 0 1 0 1.602zm0 0M12 9.992c-.883 0-1.602.719-1.602 1.602 0 .883.72 1.601 1.602 1.601.883 0 1.602-.718 1.602-1.601S12.882 9.992 12 9.992zm0 2.403a.802.802 0 0 1 0-1.602.802.802 0 0 1 0 1.602zm0 0M17.2 9.992a1.6 1.6 0 0 0-1.598 1.602 1.6 1.6 0 0 0 1.597 1.601c.883 0 1.602-.718 1.602-1.601s-.719-1.602-1.602-1.602zm0 2.403a.802.802 0 0 1 0-1.602.802.802 0 0 1 0 1.602zm0 0"/>
</svg>
